X: 152
T: Lady Charles Spencers Fancy
%R: reel
B: Chas & Sam Thompson "Twenty Four Country Dances for the Year 1779", London 1779, p.76 #2
F: http://www.vwml.org/browse/browse-collections-dance-tune-books/browse-thompsons1779
Z: 2014 John Chambers <jc:trillian.mit.edu> (added dance description)
N: Changed the length of the last note to fix the rhythm.
M: 2/4
L: 1/16
K: D
% - - - - - - - - - - - - - - - - - - - - - - - - - - - - -
a |\
(af)(fa) (af)(fa) | g2g2 f3f |\
(fd)(df) (fd)(df) | e2{d}TcB/c/ d2z :|
|: a |\
cccc d3e/f/  gg{a}Tgf/g/ f3a |\
cccc d2ef | ee {d}Tc2B/c/ d2z :}
% - - - - - - - - - - Dance description - - - - - - - - - -
%%begintext align
%% The 1st Gent: cast off one Cu. & foot it to his
%% Partner .|. cast up and the Lady at the same
%% time cast off foot it :|. lead down two Cu. up
%% again and cast off .|: hands 6 quite round :|:
%%endtext

%%sep 1 1 500
%%sep 1 1 500
